public/images/cy2.svg

<svg width="100" height="100" viewBox="0 0 100 100" fill="none" xmlns="http://www.w3.org/2000/svg">
<path d="M92.5247 44.1253L87.1125 42.8836L86.146 42.5015L61.3077 42.6925V54.5373L92.5247 54.6328V44.1253Z" fill="white"/>
<path d="M82.3767 53.4866C82.5322 53.0797 82.587 52.6421 82.5366 52.21C82.4861 51.778 82.3319 51.3641 82.0868 51.003C81.8349 50.7046 81.5261 50.4582 81.1778 50.2779C80.8296 50.0976 80.4488 49.9869 80.0572 49.9523L63.2406 49.7612C63.144 49.7612 63.0473 49.6657 62.9507 49.6657C62.9282 49.649 62.9099 49.6274 62.8973 49.6025C62.8847 49.5776 62.8782 49.5502 62.8782 49.5224C62.8782 49.4946 62.8847 49.4672 62.8973 49.4423C62.9099 49.4174 62.9282 49.3958 62.9507 49.3791C63.0473 49.1881 63.144 49.0926 63.3373 49.0926L80.2505 48.9015C81.3242 48.7837 82.3468 48.3854 83.2131 47.7474C84.0794 47.1094 84.7582 46.2549 85.1795 45.2717L86.1459 42.7881C86.1459 42.6926 86.2426 42.597 86.1459 42.5015C85.6205 40.1884 84.3454 38.108 82.5145 36.5764C80.6835 35.0449 78.3968 34.146 76.0017 34.0163C73.6067 33.8866 71.2343 34.5332 69.245 35.8578C67.2557 37.1824 65.7582 39.1127 64.9802 41.3552C63.9703 40.6423 62.7383 40.3041 61.501 40.4C60.3654 40.5252 59.3067 41.0283 58.4988 41.8268C57.6909 42.6253 57.1818 43.6717 57.0552 44.794C56.9908 45.3685 57.0235 45.9496 57.1518 46.5134C55.3145 46.5636 53.5695 47.3204 52.288 48.6226C51.0065 49.9249 50.2897 51.6699 50.2899 53.4866C50.2741 53.8395 50.3066 54.193 50.3866 54.5373C50.391 54.6119 50.423 54.6823 50.4764 54.7351C50.5299 54.7879 50.6011 54.8195 50.6765 54.8239H81.7002C81.8935 54.8239 82.0868 54.7284 82.0868 54.5373L82.3767 53.4866Z" fill="#F48120"/>
<path d="M87.6923 42.7881H87.2091C87.1124 42.7881 87.0158 42.8836 86.9191 42.9791L86.2426 45.2717C86.0871 45.6785 86.0323 46.1162 86.0827 46.5482C86.1331 46.9803 86.2874 47.3941 86.5325 47.7552C86.7843 48.0537 87.0932 48.3 87.4415 48.4803C87.7897 48.6606 88.1705 48.7713 88.5621 48.806L92.1381 48.997C92.2347 48.997 92.3313 49.0926 92.428 49.0926C92.4505 49.1092 92.4688 49.1309 92.4813 49.1557C92.4939 49.1806 92.5005 49.208 92.5005 49.2358C92.5005 49.2637 92.4939 49.2911 92.4813 49.3159C92.4688 49.3408 92.4505 49.3624 92.428 49.3791C92.3313 49.5702 92.2347 49.6657 92.0414 49.6657L88.3688 49.8567C87.2951 49.9745 86.2725 50.3729 85.4062 51.0108C84.5399 51.6488 83.8611 52.5034 83.4398 53.4866L83.2465 54.3463C83.1499 54.4418 83.2465 54.6329 83.4398 54.6329H96.1972C96.2366 54.6384 96.2768 54.6348 96.3145 54.6224C96.3523 54.61 96.3865 54.589 96.4147 54.5612C96.4428 54.5334 96.464 54.4995 96.4766 54.4622C96.4892 54.4249 96.4928 54.3852 96.4872 54.3463C96.7173 53.537 96.8471 52.703 96.8738 51.8627C96.8584 49.4606 95.8862 47.1613 94.1676 45.4627C92.4491 43.7642 90.1226 42.8032 87.6923 42.7881Z" fill="#FAAD3F"/>
<path d="M98.1301 59.9823C97.9581 59.9823 97.7899 59.9318 97.6469 59.8374C97.5038 59.7429 97.3923 59.6086 97.3265 59.4516C97.2607 59.2945 97.2434 59.1216 97.277 58.9548C97.3106 58.7881 97.3934 58.6349 97.515 58.5147C97.6367 58.3944 97.7917 58.3125 97.9604 58.2794C98.1291 58.2462 98.304 58.2632 98.463 58.3283C98.6219 58.3934 98.7578 58.5036 98.8533 58.6449C98.9489 58.7863 98.9999 58.9525 98.9999 59.1226C99.0004 59.2356 98.9782 59.3476 98.9347 59.4521C98.8911 59.5566 98.8271 59.6516 98.7462 59.7315C98.6654 59.8114 98.5693 59.8747 98.4635 59.9178C98.3578 59.9608 98.2445 59.9827 98.1301 59.9823ZM98.1301 58.4539C97.9963 58.4539 97.8655 58.4931 97.7542 58.5666C97.643 58.6401 97.5563 58.7445 97.5051 58.8667C97.4539 58.9889 97.4405 59.1233 97.4666 59.253C97.4927 59.3827 97.5571 59.5019 97.6517 59.5954C97.7463 59.6889 97.8669 59.7526 97.9981 59.7784C98.1294 59.8042 98.2654 59.7909 98.389 59.7403C98.5126 59.6897 98.6183 59.604 98.6926 59.494C98.767 59.3841 98.8066 59.2548 98.8066 59.1226C98.8088 59.0342 98.7928 58.9462 98.7596 58.8641C98.7264 58.782 98.6766 58.7075 98.6133 58.6449C98.5501 58.5824 98.4746 58.5333 98.3916 58.5004C98.3085 58.4676 98.2195 58.4517 98.1301 58.4539ZM98.5167 59.6002H98.3234L98.1301 59.3136H97.9368V59.6002H97.7435V58.7405H98.2268C98.2661 58.7349 98.3063 58.7385 98.344 58.7509C98.3818 58.7634 98.4161 58.7843 98.4442 58.8121C98.4723 58.8399 98.4935 58.8738 98.5061 58.9111C98.5187 58.9484 98.5223 58.9881 98.5167 59.027C98.5167 59.1226 98.42 59.2181 98.3234 59.3136L98.5167 59.6002ZM98.2268 59.1226C98.3234 59.1226 98.3234 59.1226 98.3234 59.027C98.3237 59.0144 98.3214 59.0019 98.3166 58.9902C98.3118 58.9785 98.3047 58.9678 98.2957 58.9589C98.2867 58.95 98.2759 58.9429 98.2641 58.9382C98.2522 58.9335 98.2395 58.9312 98.2268 58.9315H97.9368V59.2181H98.2268V59.1226ZM11.5345 58.2629H13.6607V63.9942H17.3333V65.8091H11.5345V58.2629ZM19.5562 61.9882C19.5562 61.4576 19.6652 60.9326 19.8765 60.4448C20.0879 59.9571 20.3972 59.5168 20.7857 59.1506C21.1742 58.7845 21.6339 58.5001 22.1369 58.3146C22.6399 58.1292 23.1757 58.0466 23.712 58.0718C24.2432 58.0482 24.7737 58.1326 25.2706 58.3198C25.7675 58.507 26.2202 58.793 26.6007 59.1601C26.9813 59.5273 27.2815 59.9677 27.4828 60.4542C27.6841 60.9406 27.7823 61.4628 27.7711 61.9882C27.7711 62.5188 27.6621 63.0439 27.4508 63.5316C27.2394 64.0194 26.9301 64.4597 26.5416 64.8258C26.1531 65.192 25.6934 65.4764 25.1904 65.6618C24.6874 65.8473 24.1516 65.9299 23.6153 65.9047C23.0861 65.9202 22.5592 65.8302 22.066 65.6401C21.5728 65.45 21.1233 65.1637 20.7445 64.7982C20.3657 64.4327 20.0652 63.9955 19.861 63.5127C19.6569 63.0299 19.5532 62.5115 19.5562 61.9882ZM25.6449 61.9882C25.6639 61.7234 25.6283 61.4576 25.5403 61.2067C25.4524 60.9559 25.3139 60.7253 25.1332 60.5289C24.9525 60.3325 24.7334 60.1743 24.4891 60.0639C24.2449 59.9535 23.9805 59.8933 23.712 59.8867C23.1908 59.9119 22.6994 60.1342 22.3396 60.5076C21.9797 60.8811 21.779 61.377 21.779 61.8927C21.779 62.4084 21.9797 62.9043 22.3396 63.2778C22.6994 63.6512 23.1908 63.8735 23.712 63.8987C24.8717 64.0897 25.6449 63.1345 25.6449 61.9882ZM30.3806 62.4658V58.2629H32.5068V62.4658C32.5068 63.5166 33.0867 64.0897 33.9565 64.0897C34.1597 64.1064 34.364 64.0775 34.5543 64.0051C34.7445 63.9328 34.9157 63.8189 35.0552 63.6719C35.1946 63.5249 35.2986 63.3487 35.3594 63.1564C35.4202 62.9641 35.4362 62.7607 35.4062 62.5614V58.2629H37.5325V62.4658C37.5325 64.9494 36.0828 66.0002 33.9565 66.0002C31.7337 65.9046 30.3806 64.8539 30.3806 62.4658ZM40.7218 58.2629H43.7179C46.424 58.2629 48.067 59.7912 48.067 61.9882C48.067 64.1852 46.424 65.8091 43.7179 65.8091H40.8185V58.2629H40.7218ZM43.7179 63.8987C43.9872 63.9241 44.2589 63.8936 44.5156 63.8091C44.7723 63.7247 45.0083 63.5881 45.2085 63.4083C45.4087 63.2284 45.5687 63.0092 45.6781 62.7646C45.7876 62.5201 45.8441 62.2556 45.8441 61.9882C45.8441 61.7208 45.7876 61.4564 45.6781 61.2118C45.5687 60.9673 45.4087 60.7481 45.2085 60.5682C45.0083 60.3883 44.7723 60.2518 44.5156 60.1673C44.2589 60.0829 43.9872 60.0524 43.7179 60.0778H42.8481V63.8987H43.7179ZM51.0631 58.2629H57.1518V60.0778H53.1893V61.3196H56.7652V63.039H53.1893V65.8091H51.0631V58.2629ZM60.1479 58.2629H62.2741V63.9942H65.9467V65.8091H60.1479V58.2629ZM71.4556 58.1673H73.5818L76.8678 65.8091H74.5483L73.9684 64.4718H70.9723L70.3924 65.8091H68.1696L71.4556 58.1673ZM73.3885 62.8479L72.5187 60.7464L71.6488 62.8479H73.3885ZM79.5739 58.2629H83.1498C83.6061 58.2263 84.0651 58.2838 84.4976 58.4318C84.9302 58.5798 85.3269 58.815 85.6627 59.1226C85.9396 59.4176 86.1405 59.7743 86.2485 60.1624C86.3564 60.5504 86.3683 60.9585 86.2829 61.352C86.1976 61.7455 86.0177 62.113 85.7583 62.4232C85.4989 62.7335 85.1678 62.9775 84.7928 63.1345L86.6291 65.8091H84.2129L82.6666 63.5166H81.7001V65.8091H79.5739V58.2629ZM83.0532 61.8927C83.7297 61.8927 84.2129 61.5106 84.2129 61.033C84.2129 60.4599 83.7297 60.1733 83.0532 60.1733H81.7001V61.9882H83.0532V61.8927ZM89.3352 58.2629H95.5206V59.9823H91.4615V61.1285H95.1341V62.8479H91.4615V63.9942H95.6173V65.8091H89.3352V58.2629ZM6.8954 62.9435C6.74964 63.281 6.50743 63.5693 6.19844 63.7729C5.88946 63.9765 5.5271 64.0866 5.15576 64.0897C4.63461 64.0646 4.14321 63.8423 3.78337 63.4688C3.42353 63.0954 3.22282 62.5995 3.22282 62.0838C3.22282 61.5681 3.42353 61.0721 3.78337 60.6987C4.14321 60.3252 4.63461 60.1029 5.15576 60.0778C5.551 60.0853 5.9354 60.2068 6.26166 60.4275C6.58792 60.6481 6.84179 60.9582 6.99205 61.3196H9.21493C9.02478 60.4046 8.51264 59.5858 7.76948 59.0087C7.02632 58.4315 6.10025 58.1335 5.15576 58.1673C4.62152 58.1502 4.08916 58.2383 3.58976 58.4267C3.09036 58.615 2.63392 58.8998 2.24706 59.2644C1.86021 59.6289 1.55069 60.066 1.33657 60.5501C1.12245 61.0341 1.00801 61.5555 0.99994 62.0838C0.996965 62.607 1.10065 63.1255 1.30482 63.6082C1.50899 64.091 1.80945 64.5282 2.18828 64.8937C2.56711 65.2592 3.01655 65.5456 3.50978 65.7357C4.00302 65.9258 4.52994 66.0157 5.05911 66.0002C5.98253 66.0063 6.88194 65.7096 7.61648 65.1565C8.35102 64.6033 8.87919 63.825 9.11828 62.9435H6.8954Z" fill="#404041"/>
</svg>

<svg xmlns="http://www.w3.org/2000/svg" width="100" height="100" fill="none"><path fill="#fff" d="m92.525 44.125-5.413-1.241-.966-.383-24.838.192v11.844l31.217.096z"/><path fill="#F48120" d="M82.377 53.487a2.7 2.7 0 0 0-.29-2.484 3.014 3.014 0 0 0-2.03-1.05l-16.816-.192c-.097 0-.194-.095-.29-.095a.18.18 0 0 1-.073-.144.18.18 0 0 1 .073-.143c.096-.19.193-.286.386-.286l16.914-.192a6.1 6.1 0 0 0 2.962-1.154 6 6 0 0 0 1.967-2.475l.966-2.484c0-.095.097-.191 0-.286a10.87 10.87 0 0 0-3.632-5.926 11.1 11.1 0 0 0-6.512-2.56 11.1 11.1 0 0 0-6.757 1.842 10.9 10.9 0 0 0-4.265 5.497 5.32 5.32 0 0 0-3.479-.955 5.06 5.06 0 0 0-3.002 1.427 4.95 4.95 0 0 0-1.444 2.967 5.2 5.2 0 0 0 .097 1.72 7.1 7.1 0 0 0-4.864 2.109 6.93 6.93 0 0 0-1.998 4.864c-.016.352.017.706.097 1.05a.3.3 0 0 0 .09.198.3.3 0 0 0 .2.089H81.7c.194 0 .387-.096.387-.287z"/><path fill="#FAAD3F" d="M87.692 42.788h-.483c-.097 0-.193.096-.29.191l-.676 2.293a2.7 2.7 0 0 0 .29 2.483 3.016 3.016 0 0 0 2.03 1.05l3.575.192c.097 0 .193.096.29.096a.178.178 0 0 1 0 .286c-.097.191-.193.287-.387.287l-3.672.19a6.1 6.1 0 0 0-2.963 1.155 6 6 0 0 0-1.966 2.476l-.194.86c-.096.095 0 .286.194.286h12.757a.26.26 0 0 0 .218-.072.25.25 0 0 0 .072-.215c.23-.809.36-1.643.387-2.483a9.08 9.08 0 0 0-2.706-6.4 9.3 9.3 0 0 0-6.476-2.675"/><path fill="#404041" d="M98.13 59.982a.88.88 0 0 1-.803-.53.85.85 0 0 1 .188-.937.87.87 0 0 1 .948-.187.853.853 0 0 1 .283 1.403.87.87 0 0 1-.616.251m0-1.528a.68.68 0 0 0-.625.413.66.66 0 0 0 .147.728.68.68 0 0 0 1.108-.73.65.65 0 0 0-.368-.365.7.7 0 0 0-.262-.046m.387 1.146h-.194l-.193-.286h-.193v.286h-.194v-.86h.484a.26.26 0 0 1 .28.171.25.25 0 0 1 .01.116c0 .096-.097.191-.194.287zm-.29-.477c.096 0 .096 0 .096-.096a.1.1 0 0 0-.027-.068.1.1 0 0 0-.07-.028h-.29v.287h.29zm-86.693-.86h2.127v5.731h3.672v1.815h-5.798zm8.022 3.725c0-.53.11-1.055.32-1.543.212-.488.521-.928.91-1.294.388-.367.848-.65 1.35-.836a4 4 0 0 1 1.576-.243 3.9 3.9 0 0 1 1.559.248c.496.187.95.473 1.33.84s.68.808.882 1.294a3.8 3.8 0 0 1 .288 1.534c0 .53-.109 1.056-.32 1.544-.212.487-.52.928-.91 1.294-.388.366-.848.65-1.35.836a4 4 0 0 1-1.576.243 3.98 3.98 0 0 1-2.87-1.107 3.9 3.9 0 0 1-.884-1.285 3.9 3.9 0 0 1-.305-1.525m6.089 0a1.94 1.94 0 0 0-.512-1.46 1.99 1.99 0 0 0-1.421-.641 2.04 2.04 0 0 0-1.372.62 1.996 1.996 0 0 0 0 2.77c.36.374.85.596 1.372.622 1.16.19 1.933-.764 1.933-1.91m4.736.478v-4.203h2.126v4.203c0 1.05.58 1.624 1.45 1.624a1.37 1.37 0 0 0 1.098-.418 1.33 1.33 0 0 0 .351-1.11v-4.3h2.127v4.204c0 2.483-1.45 3.534-3.577 3.534-2.222-.095-3.575-1.146-3.575-3.534m10.34-4.203h2.997c2.706 0 4.349 1.528 4.349 3.725s-1.643 3.821-4.35 3.821H40.82v-7.546zm2.997 5.636a1.96 1.96 0 0 0 1.49-.49 1.92 1.92 0 0 0 .636-1.42 1.9 1.9 0 0 0-.636-1.42 1.95 1.95 0 0 0-1.49-.491h-.87v3.82zm7.345-5.636h6.089v1.815h-3.963v1.242h3.576v1.719H53.19v2.77h-2.126zm9.085 0h2.126v5.731h3.673v1.815h-5.8zm11.308-.096h2.126l3.286 7.642h-2.32l-.58-1.337h-2.996l-.58 1.337H68.17zm1.932 4.68-.87-2.1-.87 2.1zm6.186-4.584h3.576a3.34 3.34 0 0 1 2.513.86 2.478 2.478 0 0 1 .096 3.3c-.26.31-.591.555-.966.712l1.836 2.674h-2.416l-1.546-2.292H81.7v2.292h-2.126zm3.48 3.63c.676 0 1.159-.382 1.159-.86 0-.573-.483-.86-1.16-.86H81.7v1.815h1.353zm6.281-3.63h6.186v1.72h-4.06v1.146h3.673v1.719h-3.672v1.146h4.155v1.815h-6.282zm-82.44 4.68a1.9 1.9 0 0 1-.697.83 1.93 1.93 0 0 1-1.042.317 2.04 2.04 0 0 1-1.373-.621 1.996 1.996 0 0 1 0-2.77c.36-.374.852-.596 1.373-.621.395.007.78.129 1.106.35s.58.53.73.892h2.223a3.94 3.94 0 0 0-1.446-2.311 4.03 4.03 0 0 0-2.613-.842 4.07 4.07 0 0 0-2.909 1.097 4 4 0 0 0-.91 1.286A3.9 3.9 0 0 0 1 62.084c-.003.523.1 1.041.305 1.524.204.483.504.92.883 1.286A3.985 3.985 0 0 0 5.058 66a4.2 4.2 0 0 0 2.558-.845 4.12 4.12 0 0 0 1.502-2.213z"/></svg>
